**kern	**kern
*part1	*part1
*staff2	*staff1
*I"Piano	*
*I'Pno.	*
*clefF4	*clefG2
*k[]	*k[]
*M2/4	*M2/4
=1	=1
4r	2c 2g 2ee
4C 4c 4g	.
=2	=2
4r	4g 4cc 4ee
4C	4C 4c
=3	=3
4r	2c 2ee 2gg
4C 4g 4cc	.
=4	=4
4r	2cc 2ee 2gg
*^	*
4C 4c	4C	.
*v	*v	*
=5	=5
2G	2G 2e 2cc
*^	*
.	4C 4G 4e	.
*v	*v	*
=6	=6
4r	2e 2g 2cc
4CC 4C 4G	.
=7	=7
4r	4G 4c 4ee
4CC	4g 4b-X
=8	=8
4r	4G 4ee 4gg
4C	4e 4b-X
=9	=9
4r	4c 4e 4gg
4CC	4b-X 4cc
=10	=10
2r	4e 4cc 4gg
.	4G 4c 4b-X
=11	=11
4r	4e 4g 4ccc
4CC	4ee 4ff
=12	=12
2r	4e 4gg 4ccc
.	4c 4b-X 4ff
==	==
*-	*-
!!!system-decoration: {(s1,s2)}
